X: 816
T: Hartigan's Fancy
N:"Collected by Carey"
B:O'Neill's 816
Z:Transcribed by Dan G. Petersen, dangp@post6.tele.dk
M:6/8
L:1/8
K:G
D|B2B GBd|cBc ABc|B2B GBd|cAG FGA|
B2B GBd|cBc ABc|(d/e/f)(d c).A.F|AGG G2:|
d|f2f fed|cAG FGA|g2g gfg|afd d2(f/g/)|
fag fed|cAG FGA|(B/c/d)B {d}c.A.F|AGG G2:|


